X:2
T:Breton Gavotte 2
C:Padrig Sicard
M:4/4
L:1/8
Z:robin.beech@mcgill.ca
R:gavotte
K:D
f2gf ed Bc | (3dcd ec  A2 B2 | f2 gf  ed Bc | (3dcd ec A2 B2 |:
f2 gf ed Bc | (3dcd ef ba fe | (3def gf ed Bc | (3dcd ec A2 B2 :|
